svg/weather/moderate_snow_fill.svg

<?xml version="1.0" encoding="UTF-8"?>
<svg width="24px" height="24px" viewBox="0 0 24 24" version="1.1" xmlns="http://www.w3.org/2000/svg" xmlns:xlink="http://www.w3.org/1999/xlink">
    <title>moderate_snow_fill</title>
    <g id="Icon" stroke="none" stroke-width="1" fill="none" fill-rule="evenodd">
        <g id="Weather" transform="translate(-529.000000, -144.000000)" fill-rule="nonzero">
            <g id="moderate_snow_fill" transform="translate(529.000000, 144.000000)">
                <path d="M24,0 L24,24 L0,24 L0,0 L24,0 Z M12.5935,23.2578 L12.5819,23.2595 L12.5109,23.295 L12.4919,23.2987 L12.4767,23.295 L12.4057,23.2595 C12.3958,23.2564 12.387,23.259 12.3821,23.2649 L12.378,23.2758 L12.3609,23.7031 L12.3659,23.7235 L12.3769,23.7357 L12.4805,23.8097 L12.4953,23.8136 L12.5071,23.8097 L12.6107,23.7357 L12.6233,23.7197 L12.6267,23.7031 L12.6096,23.2758 C12.6076,23.2657 12.601,23.2593 12.5935,23.2578 Z M12.8584,23.1453 L12.8445,23.1473 L12.6598,23.2397 L12.6499,23.2499 L12.6472,23.2611 L12.6651,23.6906 L12.6699,23.7034 L12.6784,23.7105 L12.8793,23.8032 C12.8914,23.8069 12.9022,23.803 12.9078,23.7952 L12.9118,23.7812 L12.8777,23.1665 C12.8753,23.1546 12.8674,23.147 12.8584,23.1453 Z M12.143,23.1473 C12.1332,23.1424 12.1222,23.1453 12.1156,23.1526 L12.1099,23.1665 L12.0758,23.7812 C12.0751,23.7927 12.0828,23.8019 12.0926,23.8046 L12.1083,23.8032 L12.3092,23.7105 L12.3186,23.7024 L12.3225,23.6906 L12.3404,23.2611 L12.3372,23.2485 L12.3278,23.2397 L12.143,23.1473 Z" id="MingCute"></path>
                <path d="M9.00011,16 C9.55239,16 10.0001,16.4477 10.0001,17 L10.0001,17.268 L10.2322,17.134 C10.7105,16.8578 11.3221,17.0217 11.5982,17.5 C11.8743,17.9783 11.7105,18.5899 11.2322,18.866 L11.0001,19 L11.2322,19.1339 C11.7105,19.4101 11.8743,20.0217 11.5982,20.5 C11.3221,20.9783 10.7105,21.1421 10.2322,20.866 L10.0001,20.732 L10.0001,21 C10.0001,21.5523 9.55239,22 9.00011,22 C8.44783,22 8.00011,21.5523 8.00011,21 L8.00011,20.7321 L7.76809,20.866 C7.2898,21.1422 6.67821,20.9783 6.40205,20.5 C6.1259,20.0217 6.28977,19.4101 6.76805,19.134 L7.00014,19 L6.76807,18.866 C6.28977,18.5899 6.1259,17.9783 6.40204,17.5 C6.67818,17.0217 7.28977,16.8578 7.76807,17.1339 L8.00011,17.2679 L8.00011,17 C8.00011,16.4477 8.44783,16 9.00011,16 Z M11.5,2 C14.2856,2 16.66,3.75154 17.5856,6.21198 C20.13,6.90766 22,9.23462 22,12 C22,15.2333 19.4426,17.8692 16.2402,17.9953 L16.2802,17.9495 C17.1121,17.7945 17.8737,17.2903 18.33,16.5 C18.7863,15.7096 18.8421,14.798 18.5604,14 C18.8421,13.202 18.7863,12.2904 18.33,11.5001 C17.8737,10.7097 17.1121,10.2055 16.2802,10.0505 C15.7299,9.4075 14.9125,9 13.9999,9 C13.0873,9 12.2699,9.40748 11.7196,10.0504 C10.8877,10.2055 10.1261,10.7096 9.66976,11.5 C9.21345,12.2903 9.15764,13.202 9.43936,14 L9.42879,14.0304 C9.28871,14.0104 9.14551,14 8.99988,14 C8.08728,14 7.26986,14.4075 6.71963,15.0504 C5.88769,15.2055 5.12607,15.7096 4.66976,16.5 C4.53089,16.7405 4.42911,16.9923 4.36265,17.2487 C2.94422,16.3663 2,14.7934 2,13 C2,10.9486 3.23468,9.18749 5.00053,8.41614 C5.04543,4.86494 7.93814,2 11.5,2 Z M14.0001,11 C14.5524,11 15.0001,11.4477 15.0001,12 L15.0001,12.268 L15.2322,12.134 C15.7105,11.8578 16.3221,12.0217 16.5982,12.5 C16.8743,12.9783 16.7105,13.5899 16.2322,13.866 L16.0001,14 L16.2322,14.1339 C16.7105,14.4101 16.8743,15.0217 16.5982,15.5 C16.3221,15.9783 15.7105,16.1421 15.2322,15.866 L15.0001,15.732 L15.0001,16 C15.0001,16.5523 14.5524,17 14.0001,17 C13.4478,17 13.0001,16.5523 13.0001,16 L13.0001,15.7321 L12.7681,15.866 C12.2898,16.1422 11.6782,15.9783 11.4021,15.5 C11.1259,15.0217 11.2898,14.4101 11.7681,14.134 L12.0001,14 L11.7681,13.866 C11.2898,13.5899 11.1259,12.9783 11.402,12.5 C11.6782,12.0217 12.2898,11.8578 12.7681,12.1339 L13.0001,12.2679 L13.0001,12 C13.0001,11.4477 13.4478,11 14.0001,11 Z" id="形状" fill="#09244B"></path>
            </g>
        </g>
    </g>
</svg>

<svg xmlns="http://www.w3.org/2000/svg" width="24" height="24"><g fill="none" fill-rule="nonzero"><path d="M24 0v24H0V0h24ZM12.594 23.258l-.012.002-.071.035-.02.004-.014-.004-.071-.036c-.01-.003-.019 0-.024.006l-.004.01-.017.428.005.02.01.013.104.074.015.004.012-.004.104-.074.012-.016.004-.017-.017-.427c-.002-.01-.009-.017-.016-.018Zm.264-.113-.014.002-.184.093-.01.01-.003.011.018.43.005.012.008.008.201.092c.012.004.023 0 .029-.008l.004-.014-.034-.614c-.003-.012-.01-.02-.02-.022Zm-.715.002a.023.023 0 0 0-.027.006l-.006.014-.034.614c0 .012.007.02.017.024l.015-.002.201-.093.01-.008.003-.011.018-.43-.003-.012-.01-.01-.184-.092Z"/><path fill="#09244B" d="M9 16a1 1 0 0 1 1 1v.268l.232-.134a1 1 0 1 1 1 1.732L11 19l.232.134a1 1 0 0 1-1 1.732L10 20.732V21a1 1 0 1 1-2 0v-.268l-.232.134a1 1 0 1 1-1-1.732L7 19l-.232-.134a1 1 0 1 1 1-1.732l.232.134V17a1 1 0 0 1 1-1Zm2.5-14a6.502 6.502 0 0 1 6.086 4.212 6.002 6.002 0 0 1-1.346 11.783l.04-.046a2.993 2.993 0 0 0 2.05-1.449c.456-.79.512-1.702.23-2.5a2.993 2.993 0 0 0-.23-2.5 2.993 2.993 0 0 0-2.05-1.45A2.993 2.993 0 0 0 14 9c-.913 0-1.73.407-2.28 1.05a2.994 2.994 0 0 0-2.05 1.45 2.993 2.993 0 0 0-.23 2.5l-.011.03a2.993 2.993 0 0 0-2.71 1.02 2.993 2.993 0 0 0-2.356 2.199A5 5 0 0 1 5 8.416 6.5 6.5 0 0 1 11.5 2Zm2.5 9a1 1 0 0 1 1 1v.268l.232-.134a1 1 0 1 1 1 1.732L16 14l.232.134a1 1 0 0 1-1 1.732L15 15.732V16a1 1 0 1 1-2 0v-.268l-.232.134a1 1 0 1 1-1-1.732L12 14l-.232-.134a1 1 0 1 1 1-1.732l.232.134V12a1 1 0 0 1 1-1Z"/></g></svg>
